X:1
T:Title
%%score ( 1 2 3 ) ( 4 5 )
L:1/8
Q:1/4=100
M:2/2
K:F
V:1 treble nm="Choir Aahs, SOPRANO ALTO"
V:2 treble 
V:3 treble 
V:4 bass nm="Choir Aahs, TENOR BASS"
V:5 bass 
V:1
 [CF]4 [FA]3 [FB] | cdcB A2 [FB]2 | .F4 .G4 | [CF]6 [FA]2 | [EB]2 [FA]2 [CG]2 F2 | [EG]6 [EG]2 | %6
w: Sing,~ choirs~ of~|new~ * * * * Je|ru sa|lem,~ your~|sweet est~ notes~ em|ploy,~ your~|
 F-[F-G][F-A][F-B] [Fc]2 [Fd]2 | [Ec]4 [F=B]4 | [Ec]8 | [Fc]4 [Gc]2 [Ec]2 | z2 z G F2 [FA]2 | %11
w: sweet * * * * est~|notes~ em|ploy~|the~ pas chal~|* * to|
 z2 [FA]2 z2 F2 |[M:3/4] [EG]6 |[M:1/4] z2 |[M:4/4] z4 z2 F2 | [DB]2 [DB]2 [DB]2 [DB]2 | %16
w: |hymn~||in~|songs~ of~ ho ly~|
 [CA]6 [FA]2 | [EG]2 [EG]2 [EG]2 [EG]2 | c2- [Ec-]2 [Fc]2 [Fc]2 | z2 .c4 z2 | G6 G2 | F8 |] %22
w: joy,~ in~|songs~ of~ ho ly~|joy,~ * * in~||ho ly~|joy!~|
V:2
 x8 | F8 | .A2- .[CFA]2 C2- [CE]2 | x8 | x8 | x8 | .A4 z4 | x8 | x8 | x8 | [FA]4 z4 | %11
 .[EB]4 .[CG]4 |[M:3/4] x6 |[M:1/4] x2 |[M:4/4] x8 | x8 | x8 | x8 | F2 z2 z4 | .d4 [EB]2 [FA]2 | %20
 F4 E4 | x8 |] %22
V:3
 x8 | x8 | x8 | x8 | x8 | x8 | x8 | x8 | x8 | x8 | x8 | x8 |[M:3/4] x6 |[M:1/4] x2 |[M:4/4] x8 | %15
 x8 | x8 | x8 | x8 | F6 z2 | x8 | x8 |] %22
V:4
 [F,A,]4 [F,C]3 [F,B,] | A,B,A,G, F,2 [B,,D]2 | C2 A,2 B,2 G,2 | [F,,A,]6 [F,C]2 | %4
w: ||||
 [G,C]2 [F,C]2 [E,C]2 [D,=B,]2 | [C,C]6 [C,C]2 | [F,C]8 | G,4 [G,,G,]4 | [C,G,]8 | %9
w: |||||
 [F,A,]4 [E,G,]2 [C,C]2 | C4 z4 | .C4 .[E,C]4 |[M:3/4] [C,C]6 |[M:1/4] C,2 | %14
w: ||||in~|
[M:4/4] F,2 G,2 A,2 F,2 | [B,,F,]6 [B,,F,]2 | F,2 F,2 F,2 [F,A,]2 | [C,C]6 [C,C]2 | %18
w: songs~ of~ ho ly~|joy,~ in~|songs~ of~ ho ly~|joy,~ in~|
 [F,A,]2 [G,B,]2 [A,C]2 [F,A,]2 | B,2 [A,C]2 [G,C]2 [F,C]2 | [C,C]6 [C,B,]2 | [F,,A,]8 |] %22
w: songs~ of~ ho ly~|joy,~ in~ songs~ of~|ho ly~|joy!~|
V:5
 x8 | F,4 z4 | C,4 C,4 | x8 | x8 | x8 | z4 A,2 [D,A,]2 | x8 | x8 | x8 | %10
 F,3- [F,-B,] [F,A,]2 [F,C]2 | .G,2- .[F,G,C]2 z2 [D,=B,]2 |[M:3/4] x6 |[M:1/4] x2 |[M:4/4] x8 | %15
 x8 | x8 | x8 | x8 | x8 | x8 | x8 |] %22

